X:1
T:Dedication (McGranahan), 65.75
T:Dedication (McGranahan), 65.75
T:James McGranahan, 1891
T:Public Domain Courtesy of the Cyber Hymnal™
C:James McGranahan, 1891
Z:Public Domain
Z:Courtesy of the Cyber Hymnal™
%%score ( 1 2 ) ( 3 4 )
L:1/8
Q:1/4=115
M:4/4
K:Ab
V:1 treble 
V:2 treble 
V:3 bass 
V:4 bass 
V:1
 [CE]2 [Ec]2 [EB]2 [EA]2 | [DF]2 [FA]6 | [EG]2 [EA]2 [EB]2 E2 | [Ec]8 | E2 [Ac]2 [GB]2 [_Gc]2 | %5
 [Fd]2 [EF]2 [DF]4 | [DG]3 [DG] [DA]2 [DB]2 | [CA]8 |] %8
V:2
 x8 | x8 | x6 E2 | x8 | E2 x6 | x8 | x8 | x8 |] %8
V:3
 [A,,A,]2 [A,,A,]2 [B,,G,]2 [C,A,]2 | [D,A,]2 [D,D]6 | [E,D]2 [E,C]2 [E,G,]2 [E,G,]2 | [A,,A,]8 | %4
 [A,C]2 [A,E]2 [E,E]2 A,2 | [D,A,]2 [C,=A,]2 [B,,B,]4 | [E,B,]3 [E,B,] [E,F,]2 [E,G,]2 | %7
 [A,,A,]8 |] %8
V:4
 x8 | x8 | x8 | x8 | x6 A,2 | x8 | x8 | x8 |] %8

